assets/images/bed-circle-slash.svg

<?xml version="1.0" encoding="UTF-8"?>
<svg id="Layer_1" xmlns="http://www.w3.org/2000/svg" version="1.1" viewBox="0 0 20 20">
    <!-- Generator: Adobe Illustrator 30.2.1, SVG Export Plug-In . SVG Version: 2.1.1 Build 1)  -->
    <path
        d="M15,10.5c2.49,0,4.5,2.01,4.5,4.5s-2.01,4.5-4.5,4.5-4.5-2.01-4.5-4.5,2.01-4.5,4.5-4.5ZM11.25,10c-1.52,1.14-2.5,2.96-2.5,5h-4.25c-.28,0-.5.22-.5.5v2c0,.28-.22.5-.5.5h-1c-.28,0-.5-.22-.5-.5v-2c0-.28-.22-.5-.5-.5H.5c-.28,0-.5-.22-.5-.5v-2.5c0-1.1.9-2,2-2h9.25ZM12.41,13.48c-.26.45-.41.97-.41,1.52,0,1.66,1.34,3,3,3,.56,0,1.08-.15,1.52-.42l-4.11-4.11h0ZM15,12c-.56,0-1.08.15-1.52.42l4.11,4.11c.26-.45.42-.97.42-1.52,0-1.66-1.34-3-3-3h-.01ZM16,2c1.1,0,2,.9,2,2v5h-1.25c-.24-.07-.49-.13-.75-.17v-1.33c0-.83-.67-1.5-1.5-1.5h-2c-.83,0-1.5.67-1.5,1.5v1.5h-2v-1.5c0-.83-.67-1.5-1.5-1.5h-2c-.83,0-1.5.67-1.5,1.5v1.5h-2v-5c0-1.1.9-2,2-2h12Z" />
</svg>

<svg xmlns="http://www.w3.org/2000/svg" viewBox="0 0 20 20"><path d="M15 10.5c2.49 0 4.5 2.01 4.5 4.5s-2.01 4.5-4.5 4.5-4.5-2.01-4.5-4.5 2.01-4.5 4.5-4.5m-3.75-.5a6.24 6.24 0 0 0-2.5 5H4.5c-.28 0-.5.22-.5.5v2c0 .28-.22.5-.5.5h-1c-.28 0-.5-.22-.5-.5v-2c0-.28-.22-.5-.5-.5h-1c-.28 0-.5-.22-.5-.5V12c0-1.1.9-2 2-2zm1.16 3.48c-.26.45-.41.97-.41 1.52 0 1.66 1.34 3 3 3 .56 0 1.08-.15 1.52-.42l-4.11-4.11ZM15 12c-.56 0-1.08.15-1.52.42l4.11 4.11c.26-.45.42-.97.42-1.52 0-1.66-1.34-3-3-3H15Zm1-10c1.1 0 2 .9 2 2v5h-1.25c-.24-.07-.49-.13-.75-.17V7.5c0-.83-.67-1.5-1.5-1.5h-2c-.83 0-1.5.67-1.5 1.5V9H9V7.5C9 6.67 8.33 6 7.5 6h-2C4.67 6 4 6.67 4 7.5V9H2V4c0-1.1.9-2 2-2z"/></svg>
